images/wbtcIcon_ef8a2e.svg

<svg fill="none" height="21" viewBox="0 0 21 21" width="21" xmlns="http://www.w3.org/2000/svg" xmlns:xlink="http://www.w3.org/1999/xlink"><clipPath id="a"><path d="m0 0h21v21h-21z"/></clipPath><g clip-path="url(#a)" clip-rule="evenodd" fill="#8e9aa3" fill-rule="evenodd"><path d="m17.1234 4.40717-.5766.57617c2.8517 3.11864 2.8517 7.89876 0 11.01696l.5766.5762c3.1738-3.441 3.1738-8.74259 0-12.18337"/><path d="m4.99538 4.45724c3.11852-2.85193 7.89832-2.85193 11.01712 0l.5765-.57669c-3.4412-3.174167-8.74254-3.174167-12.18373 0"/><path d="m4.45725 16.007c-2.84823-3.1179-2.84823-7.89339 0-11.0113l-.57666-.57617c-3.173835 3.4412-3.173835 8.74247 0 12.18337"/><path d="m16.0066 16.5389c-3.1185 2.852-7.89841 2.852-11.017 0l-.57666.5762c3.44126 3.1742 8.74246 3.1742 12.18376 0"/><path d="m12.2471 9.03163c0 1.15317-1.8029 1.01287-2.37563 1.01287v-2.03154c.57273 0 2.37563-.18071 2.37563 1.01867zm.4709 3.15397c0 1.2609-2.1604 1.1167-2.84842 1.1167v-2.2372c.68802.0019 2.84842-.196 2.84842 1.1209zm1.4223-3.60957c-.1155-1.20315-1.1532-1.60678-2.4659-1.72977v-1.65875h-1.0149v1.62606c-.2671 0-.54 0-.81102.00964v-1.6357h-1.00906v1.66839h-2.05642v1.08592s.7496-.01351.73805 0c.13529-.01475.27105.02349.37863.10667s.17858.20479.19803.33919v4.56872c-.00287.0471-.01499.0931-.03569.1355-.02069.0423-.04955.0802-.08493.1115-.03537.0312-.07657.0552-.12124.0706-.04466.0153-.09193.0218-.13908.0189-.00116.0001-.00232.0001-.00347 0 .01344.0115-.73804 0-.73804 0l-.20181 1.2129h2.04865v1.6952h1.01482v-1.6705h.81108v1.6625h1.0168v-1.6761c1.7144-.1038 2.9099-.5267 3.0598-2.1315.1211-1.2915-.4866-1.8677-1.4569-2.1006.5901-.29987.9611-.82848.8726-1.70877"/><path d="m10.4981.818768c-5.34368.003247-9.673031 4.337602-9.669776 9.681232.003255 5.3436 4.337646 9.6729 9.680976 9.6696 5.3399-.0031 9.6676-4.3318 9.6697-9.6715-.0064-5.34267-4.3384-9.671475-9.681-9.673571zm0 20.181232c-5.79896-.001-10.49927505-4.7028-10.49812006-10.5019.001155-5.7991 4.70294006-10.49927235 10.50192006-10.49812001 5.7989.00115234 10.4971 4.70049001 10.4981 10.49812001-.0063 5.7973-4.704 10.4954-10.5019 10.5019z"/></g></svg>

<svg width="21" height="21" viewBox="0 0 21 21" fill="none" xmlns="http://www.w3.org/2000/svg">
    <g clip-path="url(#clip0)">
        <path fill-rule="evenodd" clip-rule="evenodd" d="M17.1234 4.40717L16.5468 4.98334C19.3985 8.10198 19.3985 12.8821 16.5468 16.0003L17.1234 16.5765C20.2972 13.1355 20.2972 7.83391 17.1234 4.39313" fill="#8E9AA3"/>
        <path fill-rule="evenodd" clip-rule="evenodd" d="M4.99538 4.45724C8.1139 1.60531 12.8937 1.60531 16.0125 4.45724L16.589 3.88055C13.1478 0.706383 7.84646 0.706383 4.40527 3.88055" fill="#8E9AA3"/>
        <path fill-rule="evenodd" clip-rule="evenodd" d="M4.45725 16.007C1.60902 12.8891 1.60902 8.11361 4.45725 4.9957L3.88059 4.41953C0.706755 7.86073 0.706755 13.162 3.88059 16.6029" fill="#8E9AA3"/>
        <path fill-rule="evenodd" clip-rule="evenodd" d="M16.0066 16.5389C12.8881 19.3909 8.10819 19.3909 4.9896 16.5389L4.41294 17.1151C7.8542 20.2893 13.1554 20.2893 16.5967 17.1151" fill="#8E9AA3"/>
        <path fill-rule="evenodd" clip-rule="evenodd" d="M12.2471 9.03163C12.2471 10.1848 10.4442 10.0445 9.87147 10.0445V8.01296C10.4442 8.01296 12.2471 7.83225 12.2471 9.03163ZM12.718 12.1856C12.718 13.4465 10.5576 13.3023 9.86958 13.3023V11.0651C10.5576 11.067 12.718 10.8691 12.718 12.186V12.1856ZM14.1403 8.57603C14.0248 7.37288 12.9871 6.96925 11.6744 6.84626V5.18751H10.6595V6.81357C10.3924 6.81357 10.1195 6.81357 9.84848 6.82321V5.18751H8.83942V6.8559H6.783V7.94182C6.783 7.94182 7.5326 7.92831 7.52105 7.94182C7.65634 7.92707 7.7921 7.96531 7.89968 8.04849C8.00726 8.13167 8.07826 8.25328 8.09771 8.38768V12.9564C8.09484 13.0035 8.08272 13.0495 8.06202 13.0919C8.04133 13.1342 8.01247 13.1721 7.97709 13.2034C7.94172 13.2346 7.90052 13.2586 7.85585 13.274C7.81119 13.2893 7.76392 13.2958 7.71677 13.2929C7.71561 13.293 7.71445 13.293 7.7133 13.2929C7.72674 13.3044 6.97526 13.2929 6.97526 13.2929L6.77345 14.5058H8.8221V16.201H9.83692V14.5305H10.648V16.193H11.6648V14.5169C13.3792 14.4131 14.5747 13.9902 14.7246 12.3854C14.8457 11.0939 14.238 10.5177 13.2677 10.2848C13.8578 9.98493 14.2288 9.45632 14.1403 8.57603" fill="#8E9AA3"/>
        <path fill-rule="evenodd" clip-rule="evenodd" d="M10.4981 0.818768C5.15442 0.822015 0.825069 5.15637 0.828324 10.5C0.831579 15.8436 5.16597 20.1729 10.5093 20.1696C15.8492 20.1665 20.1769 15.8378 20.179 10.4981C20.1726 5.15543 15.8406 0.826625 10.498 0.824529L10.4981 0.818768ZM10.4981 21C4.69914 20.999 -0.00117505 16.2972 -2.00554e-05 10.4981C0.00113494 4.699 4.70292 -0.00117235 10.5019 -2.00103e-05C16.3008 0.00113233 20.999 4.70047 21 10.4981C20.9937 16.2954 16.296 20.9935 10.4981 21V21Z" fill="#8E9AA3"/>
    </g>
    <defs>
        <clipPath id="clip0">
            <rect width="21" height="21" fill="#8E9AA3"/>
        </clipPath>
    </defs>
</svg>
